X:1
T:He Lives
T:He Lives
T:James Henry Fillmore, Sr.
T:Eleanor Allen Schroll, 1916
T:Public Domain Courtesy of the Cyber Hymnal™
C:James Henry Fillmore, Sr.
Z:Public Domain
Z:Courtesy of the Cyber Hymnal™
%%score ( 1 2 ) ( 3 4 )
L:1/8
Q:1/4=105
M:4/4
K:D
V:1 treble 
V:2 treble 
V:3 bass 
V:4 bass 
V:1
 [FA]2 | [FA]2 [DF]>[EG] [FA]2 [GB]>[Gc] | [Fd]4 [FA]2 [DF]2 | [EG]2 [CE]>[DF] [EG]2 [GA]>[GB] | %4
w: 1.~Re-|joice, for the Sav- ior has|ris- en, And|gone is the dark- ness of|
w: 2.~Re-|joice in the glad Gos- pel|sto- ry; Re-|joice in the prom- ise it|
w: 3.~Re-|joice for the joy it is|bring- ing, The|hope of a glad, bright- er|
 [FA]6 [FA]2 | [FA]2 [DF]>[EG] [FA]2 [GB]>[Gc] | [Fd]4 [FA]2 [=FB]2 | %7
w: night; The|stone has been rolled from the|pri- son; He|
w: gives That|we shall be- hold Him in|glo- ry; Re-|
w: day; O|list, while the an- gels are|sing- ing; Go,|
 [Ec]2 [EA]>[EF] [E^G]2 [EA]>[EB] | [EA]6 ||"^Refrain" A2 | e6 [GB]>[Gc] | %11
w: lives in His glo- ry and|might.|||
w: joice, for we know Je- sus|lives.|He|lives! O be|
w: bear ye the mess- age a-|way.|||
 [Fd]2 [DF]>[FB] [FA]2 A2 | e6 [GB]>[Gc] | [Fd]6 [DF]2 | [EG]2 [FA]2 [GB]2 [FA]2 | %15
w: ||||
w: glad on the earth! He|lives! Je- sus|lives! Up|from the grave He|
w: ||||
 [GB]2 [Gc]2 [Ad]2 [Ge]2 | [FAf]2 [Fd]2 [Ed]2 [Ec]2 | [Fd]6 |] %18
w: |||
w: rose to save! He|lives, the Con- q’ror|lives!|
w: |||
V:2
 x2 | x8 | x8 | x8 | x8 | x8 | x8 | x8 | x6 || A2 | (G2 G2 G2) x2 | x6 A2 | (G2 G2 G2) x2 | x8 | %14
 x8 | x8 | x8 | x6 |] %18
V:3
 [D,D]2 | [D,D]2 [D,A,]>[D,A,] [D,D]2 [D,B,]>[D,A,] | [D,A,]4 [D,D]2 [D,A,]2 | %3
w: ~|~ ~ ~ ~ ~ ~|~ ~ ~|
 [C,A,]2 [A,,A,]>[A,,A,] [A,,A,]2 [A,,C]>[A,,C] | [D,D]6 [D,D]2 | %5
w: ~ ~ ~ ~ ~ ~|~ ~|
 [D,D]2 [D,A,]>[D,A,] [D,D]2 [D,B,]>[D,A,] | [D,A,]4 [D,D]2 [D,A,]2 | %7
w: ~ ~ ~ ~ ~ ~|~ ~ ~|
 [E,A,]2 [E,C]>[E,C] [E,B,]2 [E,C]>[E,D] | [A,C]6 || A,2 | [A,C]2 [A,C]2 [A,C]2 [A,,A,]>[A,,A,] | %11
w: ~ ~ ~ ~ ~ ~|~|~|~ He lives! ~ ~|
 [D,A,]2 [D,A,]>[D,D] [D,D]2 [F,D]2 | [A,C]2 [A,C]2 [A,C]2 [A,,A,]>[A,,A,] | [B,,A,]6 [D,F,]2 | %14
w: ~ ~ ~ ~ ~|~ He lives! * *||
 [E,G,]2 [F,A,]2 [G,B,]2 [F,A,]2 | [G,B,]2 [E,A,]2 [F,A,]2 [G,B,]2 | A,2 A,2 [A,,A,]2 [A,,A,]2 | %17
w: |||
 [D,A,]6 |] %18
w: |
V:4
 x2 | x8 | x8 | x8 | x8 | x8 | x8 | x8 | x6 || A,2 | x8 | x8 | x8 | x8 | x8 | x8 | A,2 A,2 x4 | %17
 x6 |] %18

